X: 106203
T: DELVIN SIDE
Q: "Strathspey."
R: Strathspey.
%R:strathspey
Z: 2017 by John Chambers <jc:trillian.mit.edu>
B: Kerr's Merrie Melodies v.1 p.6 s.2 #3
M: C
L: 1/16
K: Em
|:\
vE3ue d^cBA BE3 B3uA | vE3ue d^cBA dD3 A3uF |\
E3e d^cBA BE3 B3g | fa3 e3f d3D BAGF :|
|:\
d3E B3E d3E B4 | d3E B3E d3D (BA)GF |\
d3E B3E d3E B3g |[1 f3a e3f d3D (BA)GF :|\
[2 fagf egfe d3D BAGF |]

%%sep 1 1 500
%%sep 1 1 500

